<?xml version="1.0" encoding="UTF-8"?>
<map version="1.10" tiledversion="1.12.1" orientation="orthogonal" renderorder="right-down" width="100" height="57" tilewidth="16" tileheight="16" infinite="0" nextlayerid="3" nextobjectid="314">
 <imagelayer id="1" name="background">
  <image source="level2.png" width="1600" height="900"/>
 </imagelayer>
 <objectgroup id="2" name="collision" offsetx="10.4044" offsety="5.20219">
  <object id="1" x="920.788" y="507.214" width="39.0165" height="205.487"/>
  <object id="2" x="959.805" y="695.794" width="40.317" height="36.4154"/>
  <object id="3" x="966.308" y="733.509" width="44.2187" height="33.8143"/>
  <object id="4" x="988.417" y="715.302" width="24.7104" height="26.011"/>
  <object id="5" x="996.22" y="714.001"/>
  <object id="6" x="996.22" y="745.214" width="44.2187" height="40.317"/>
  <object id="7" x="1013.13" y="740.012"/>
  <object id="8" x="1009.23" y="734.81"/>
  <object id="9" x="1024.83" y="749.116"/>
  <object id="10" x="1024.83" y="749.116"/>
  <object id="11" x="1019.63" y="741.313" width="5.20219" height="5.20219"/>
  <object id="12" x="1014.43" y="736.111"/>
  <object id="13" x="1000.12" y="768.624" width="31.2132" height="36.4154"/>
  <object id="14" x="1001.42" y="789.433"/>
  <object id="15" x="1049.54" y="799.837"/>
  <object id="16" x="1037.84" y="763.422" width="10.4044" height="20.8088"/>
  <object id="17" x="1037.84" y="756.919" width="1.30055" height="2.6011"/>
  <object id="18" x="1052.14" y="775.127"/>
  <object id="19" x="1052.14" y="775.127"/>
  <object id="20" x="1041.74" y="763.422"/>
  <object id="21" x="1036.54" y="750.417"/>
  <object id="22" x="1057.35" y="794.635" width="1.30055" height="1.30055"/>
  <object id="23" x="1066.45" y="793.335"/>
  <object id="24" x="1066.45" y="779.029"/>
  <object id="25" x="1072.95" y="780.329" height="1.30055"/>
  <object id="26" x="1072.95" y="781.63" height="3.90165"/>
  <object id="27" x="1067.75" y="807.641"/>
  <object id="28" x="1067.75" y="810.242" height="2.6011"/>
  <object id="29" x="1061.25" y="818.045"/>
  <object id="30" x="1057.35" y="812.843" width="1.30055"/>
  <object id="31" x="1040.44" y="803.739"/>
  <object id="32" x="1040.44" y="803.739"/>
  <object id="33" x="1082.06" y="788.132" width="114.448" height="50.7214"/>
  <object id="34" x="1131.48" y="838.854" width="3.90165" height="2.6011"/>
  <object id="35" x="1076.85" y="823.247"/>
  <object id="36" x="1075.55" y="819.346" height="2.6011"/>
  <object id="37" x="1078.15" y="807.641" width="6.50274" height="1.30055"/>
  <object id="38" x="1196.5" y="827.149" width="1.30055"/>
  <object id="39" x="1191.3" y="808.941"/>
  <object id="40" x="1192.6" y="807.641" width="9.10384"/>
  <object id="41" x="1317.46" y="782.93" width="146.962" height="74.1313"/>
  <object id="42" x="1457.92" y="762.122" width="74.1313" height="57.2241"/>
  <object id="43" x="1454.01" y="792.034"/>
  <object id="44" x="1454.01" y="792.034"/>
  <object id="45" x="1456.61" y="782.93" width="1.30055" height="1.30055"/>
  <object id="46" x="1455.31" y="784.231"/>
  <object id="47" x="1455.31" y="779.029" width="7.80329" height="5.20219"/>
  <object id="48" x="1483.93" y="769.925"/>
  <object id="49" x="1483.93" y="764.723" width="3.90165" height="5.20219"/>
  <object id="50" x="1495.63" y="760.821" width="1.30055"/>
  <object id="51" x="1496.93" y="760.821"/>
  <object id="52" x="1494.33" y="759.52" height="1.30055"/>
  <object id="53" x="1499.53" y="747.815" width="6.50274" height="5.20219"/>
  <object id="54" x="1512.54" y="737.411" width="3.90165"/>
  <object id="55" x="1516.44" y="737.411"/>
  <object id="56" x="1515.14" y="737.411" width="1.30055"/>
  <object id="57" x="1515.14" y="737.411"/>
  <object id="58" x="1515.14" y="736.111" width="3.90165" height="1.30055"/>
  <object id="59" x="1526.84" y="734.81" width="7.80329" height="1.30055"/>
  <object id="60" x="1519.04" y="737.411" width="35.1148" height="50.7214"/>
  <object id="61" x="1503.43" y="771.225" width="1.30055" height="1.30055"/>
  <object id="62" x="1494.33" y="767.324" width="2.6011"/>
  <object id="63" x="1493.03" y="767.324"/>
  <object id="64" x="1491.73" y="766.023" height="1.30055"/>
  <object id="65" x="1494.33" y="758.22" width="9.10384" height="3.90165"/>
  <object id="66" x="1519.04" y="756.919" width="3.90165"/>
  <object id="67" x="1520.34" y="279.618" width="26.011" height="100.142"/>
  <object id="68" x="1537.25" y="373.257" width="28.6121" height="40.317"/>
  <object id="69" x="1535.95" y="383.662" width="2.6011"/>
  <object id="70" x="1530.75" y="381.061"/>
  <object id="71" x="1532.05" y="381.061" width="6.50274" height="2.6011"/>
  <object id="72" x="1555.46" y="383.662" width="2.6011" height="28.6121"/>
  <object id="73" x="1040.44" y="33.8143" width="538.427" height="98.8417"/>
  <object id="74" x="1519.04" y="123.552" width="46.8198" height="154.765"/>
  <object id="75" x="946.799" y="68.9291" width="111.847" height="42.9181"/>
  <object id="76" x="979.313" y="128.754" width="31.2132" height="228.897"/>
  <object id="77" x="935.094" y="355.05" width="66.328" height="36.4154"/>
  <object id="78" x="873.969" y="68.9291" width="96.2406" height="16.9071"/>
  <object id="79" x="823.247" y="114.448" width="26.011" height="49.4208"/>
  <object id="82" x="875.269" y="166.47" width="16.9071" height="33.8143"/>
  <object id="83" x="849.258" y="159.967" width="37.7159" height="24.7104"/>
  <object id="84" x="842.756" y="182.077"/>
  <object id="85" x="842.756" y="182.077"/>
  <object id="86" x="838.854" y="180.776" width="2.6011"/>
  <object id="87" x="836.253" y="178.175"/>
  <object id="88" x="834.952" y="176.875"/>
  <object id="89" x="834.952" y="176.875"/>
  <object id="90" x="810.242" y="494.208" width="31.2132" height="122.252"/>
  <object id="91" x="815.444" y="600.853" width="27.3115" height="66.328"/>
  <object id="92" x="840.154" y="607.356" width="24.7104" height="54.623"/>
  <object id="93" x="868.767" y="650.274" width="1.30055"/>
  <object id="94" x="872.668" y="650.274"/>
  <object id="95" x="868.767" y="639.87" width="2.6011" height="3.90165"/>
  <object id="96" x="870.067" y="624.263"/>
  <object id="97" x="866.165" y="621.662"/>
  <object id="98" x="840.154" y="671.083" width="22.1093" height="118.35"/>
  <object id="99" x="559.236" y="769.925" width="296.525" height="40.317"/>
  <object id="100" x="823.247" y="777.728"/>
  <object id="101" x="820.646" y="773.826"/>
  <object id="102" x="816.745" y="771.225" width="2.6011"/>
  <object id="103" x="811.542" y="771.225" width="1.30055"/>
  <object id="104" x="803.739" y="768.624" width="6.50274" height="2.6011"/>
  <object id="105" x="801.138" y="767.324" width="1.30055"/>
  <object id="106" x="801.138" y="767.324"/>
  <object id="107" x="801.138" y="767.324"/>
  <object id="108" x="801.138" y="763.422" width="6.50274" height="2.6011"/>
  <object id="109" x="815.444" y="762.122"/>
  <object id="110" x="815.444" y="760.821" height="1.30055"/>
  <object id="111" x="815.444" y="759.52" width="5.20219" height="1.30055"/>
  <object id="112" x="825.848" y="759.52"/>
  <object id="113" x="825.848" y="759.52"/>
  <object id="114" x="842.756" y="766.023" width="1.30055"/>
  <object id="115" x="844.056" y="766.023"/>
  <object id="116" x="530.624" y="723.105" width="39.0165" height="70.2296"/>
  <object id="117" x="440.886" y="721.805" width="117.049" height="22.1093"/>
  <object id="118" x="425.279" y="727.007" width="29.9126" height="100.142"/>
  <object id="119" x="277.017" y="801.138" width="188.58" height="37.7159"/>
  <object id="132" x="62.4263" y="753.018" width="32.5137" height="28.6121"/>
  <object id="133" x="94.9401" y="784.231" width="182.077" height="18.2077"/>
  <object id="134" x="3.90165" y="430.482" width="28.6121" height="306.929"/>
  <object id="135" x="31.2132" y="719.203" width="244.503" height="15.6066"/>
  <object id="136" x="7.80329" y="130.055" width="19.5082" height="312.132"/>
  <object id="137" x="19.5082" y="132.656" width="137.858" height="15.6066"/>
  <object id="138" x="37.7159" y="29.9126" width="91.0384" height="67.6285"/>
  <object id="139" x="89.7379" y="101.443" width="19.5082" height="65.0274"/>
  <object id="140" x="111.847" y="37.7159" width="182.077" height="27.3115"/>
  <object id="141" x="309.531" y="35.1148" width="231.498" height="15.6066"/>
  <object id="142" x="286.121" y="71.5302" width="23.4099" height="135.257"/>
  <object id="143" x="303.028" y="97.5412" width="16.9071" height="78.0329"/>
  <object id="144" x="232.798" y="148.263" width="46.8198" height="16.9071"/>
  <object id="145" x="297.826" y="188.58" width="114.448" height="31.2132"/>
  <object id="146" x="489.006" y="195.082" width="62.4263" height="23.4099"/>
  <object id="147" x="539.728" y="195.082"/>
  <object id="148" x="539.728" y="188.58"/>
  <object id="149" x="539.728" y="188.58"/>
  <object id="150" x="537.127" y="44.2187" width="94.9401" height="36.4154"/>
  <object id="151" x="576" y="80" width="6.6458" height="21.4428"/>
  <object id="152" x="608.657" y="78.0329" width="1.30055" height="24.7104"/>
  <object id="153" x="637.269" y="54.623" width="150.864" height="39.0165"/>
  <object id="154" x="776.428" y="52.0219" width="91.0384" height="46.8198"/>
  <object id="155" x="671.083" y="179.476" width="45.5192" height="10.4044"/>
  <object id="156" x="689.291" y="176.875" width="1.30055"/>
  <object id="157" x="678.886" y="182.077"/>
  <object id="158" x="676.285" y="179.476" height="1.30055"/>
  <object id="159" x="668.482" y="179.476" width="2.6011"/>
  <object id="160" x="667.181" y="179.476"/>
  <object id="161" x="695.794" y="182.077" width="2.6011"/>
  <object id="162" x="698.395" y="182.077" width="2.6011"/>
  <object id="163" x="704.897" y="182.077"/>
  <object id="164" x="706.198" y="182.077"/>
  <object id="165" x="706.198" y="180.776" height="1.30055"/>
  <object id="166" x="29.9126" y="270.514" width="167.771" height="26.011"/>
  <object id="167" x="78.0329" y="244.503"/>
  <object id="168" x="75.4318" y="241.902"/>
  <object id="169" x="75.4318" y="241.902"/>
  <object id="170" x="188.58" y="304.328" width="13.0055" height="66.328"/>
  <object id="171" x="198.984" y="358.951" width="62.4263" height="33.8143"/>
  <object id="172" x="217.192" y="394.066" width="10.4044" height="33.8143"/>
  <object id="173" x="224.995" y="413.574" width="48.1203" height="24.7104"/>
  <object id="174" x="265.312" y="381.061" width="35.1148" height="7.80329"/>
  <object id="175" x="267.913" y="369.356" width="162.569" height="22.1093"/>
  <object id="176" x="423.979" y="378.46" width="10.4044" height="39.0165"/>
  <object id="178" x="374.558" y="414.875" width="44.2187" height="19.5082"/>
  <object id="180" x="479.902" y="426.58" width="22.1093" height="33.8143"/>
  <object id="181" x="498.11" y="457.793" width="2.6011" height="2.6011"/>
  <object id="182" x="487.706" y="433.083"/>
  <object id="183" x="487.706" y="431.782" height="1.30055"/>
  <object id="184" x="37.7159" y="452.591" width="80.634" height="36.4154"/>
  <object id="185" x="180.776" y="455.192" width="63.7269" height="42.9181"/>
  <object id="186" x="247.104" y="464.296" width="13.0055" height="57.2241"/>
  <object id="187" x="61.1258" y="663.28" width="33.8143" height="20.8088"/>
  <object id="188" x="53.3225" y="567.039" width="31.2132" height="9.10384"/>
  <object id="189" x="152.164" y="667.181" width="14.306" height="20.8088"/>
  <object id="190" x="111.847" y="607.356" width="46.8198" height="9.10384"/>
  <object id="191" x="148.263" y="606.056"/>
  <object id="192" x="157.366" y="606.056" width="1.30055"/>
  <object id="193" x="123.552" y="603.455"/>
  <object id="194" x="157.366" y="535.826" width="18.2077" height="22.1093"/>
  <object id="195" x="170.372" y="554.034" width="3.90165" height="1.30055"/>
  <object id="196" x="175.574" y="555.334"/>
  <object id="197" x="169.071" y="547.531"/>
  <object id="198" x="223.694" y="676.285" width="31.2132" height="20.8088"/>
  <object id="199" x="256.208" y="572.241" width="93.6395" height="46.8198"/>
  <object id="200" x="433.083" y="554.034"/>
  <object id="201" x="421.378" y="547.531" width="107.946" height="11.7049"/>
  <object id="202" x="435.684" y="611.258" width="42.9181" height="13.0055"/>
  <object id="203" x="496.81" y="638.569" width="31.2132" height="24.7104"/>
  <object id="204" x="531.924" y="551.433" width="24.7104" height="171.672"/>
  <object id="205" x="539.728" y="548.832" width="61.1258" height="18.2077"/>
  <object id="206" x="594.351" y="507.214" width="9.10384" height="42.9181"/>
  <object id="207" x="672.384" y="495.509" width="28.6121" height="40.317"/>
  <object id="208" x="426.58" y="297.826" width="131.355" height="31.2132"/>
  <object id="209" x="556.635" y="239.301" width="11.7049" height="71.5302"/>
  <object id="210" x="564.438" y="238" width="62.4263" height="23.4099"/>
  <object id="211" x="616.46" y="277.017" width="18.2077" height="32.5137"/>
  <object id="212" x="578.744" y="299.126"/>
  <object id="213" x="578.744" y="299.126"/>
  <object id="214" x="724.406" y="269.214" width="15.6066" height="84.5357"/>
  <object id="215" x="740.012" y="277.017" width="3.90165" height="1.30055"/>
  <object id="216" x="758.22" y="280.919" width="1.30055"/>
  <object id="217" x="759.52" y="280.919" width="1.30055"/>
  <object id="218" x="764.723" y="280.919" width="2.6011"/>
  <object id="219" x="760.821" y="279.618" width="7.80329"/>
  <object id="220" x="741.313" y="275.716"/>
  <object id="221" x="741.313" y="273.115" height="1.30055"/>
  <object id="222" x="746.515" y="271.815" width="11.7049" height="3.90165"/>
  <object id="223" x="764.723" y="279.618"/>
  <object id="224" x="768.624" y="280.919" width="2.6011" height="1.30055"/>
  <object id="225" x="533.225" y="383.662" width="71.5302" height="26.011"/>
  <object id="226" x="620.362" y="387.564" width="75.4318" height="19.5082"/>
  <object id="227" x="733.509" y="373.257" width="1.30055"/>
  <object id="232" x="732.209" y="364.154" width="3.7911" height="3.84637"/>
  <object id="233" x="732.209" y="364.154"/>
  <object id="234" x="728.307" y="365.454"/>
  <object id="235" x="1046.94" y="489.006" width="22.1093" height="80.634"/>
  <object id="236" x="1078.15" y="583.946"/>
  <object id="237" x="1074.25" y="583.946" width="1.30055"/>
  <object id="238" x="1063.85" y="570.941" width="3.90165" height="1.30055"/>
  <object id="239" x="989.718" y="634.668" width="54.623" height="41.6176"/>
  <object id="240" x="1118.47" y="694.493" width="37.7159" height="29.9126"/>
  <object id="241" x="1113.27" y="690.591" height="2.6011"/>
  <object id="242" x="1113.27" y="695.794" width="1.30055"/>
  <object id="243" x="1115.87" y="694.493" height="1.30055"/>
  <object id="244" x="1117.17" y="693.192" height="1.30055"/>
  <object id="245" x="1111.97" y="695.794"/>
  <object id="246" x="1113.27" y="707.498"/>
  <object id="247" x="1117.17" y="700.996" height="1.30055"/>
  <object id="248" x="1067.75" y="727.007" width="79.3335" height="37.7159"/>
  <object id="249" x="1374.68" y="700.996" width="52.0219" height="13.0055"/>
  <object id="250" x="1386.38" y="715.302" height="1.30055"/>
  <object id="251" x="1383.78" y="716.602" width="1.30055"/>
  <object id="252" x="1378.58" y="716.602" width="1.30055"/>
  <object id="253" x="1387.69" y="711.4" width="9.10384" height="2.6011"/>
  <object id="254" x="1411.1" y="707.498" width="3.90165" height="2.6011"/>
  <object id="255" x="1415" y="704.897" width="1.30055"/>
  <object id="256" x="1469.62" y="646.373" width="26.011" height="27.3115"/>
  <object id="257" x="1353.87" y="746.515" width="81.9346" height="6.50274"/>
  <object id="258" x="1355.17" y="759.52"/>
  <object id="259" x="1360.37" y="759.52" width="9.10384" height="1.30055"/>
  <object id="260" x="1373.38" y="754.318" width="22.1093" height="6.50274"/>
  <object id="261" x="1412.4" y="747.815" width="2.6011" height="2.6011"/>
  <object id="262" x="1418.9" y="746.515" width="2.6011" height="1.30055"/>
  <object id="263" x="1424.1" y="746.515" width="3.90165"/>
  <object id="264" x="1442.31" y="741.313" width="3.90165" height="1.30055"/>
  <object id="265" x="1447.51" y="741.313" width="1.30055"/>
  <object id="266" x="1448.81" y="741.313"/>
  <object id="267" x="1451.41" y="741.313"/>
  <object id="268" x="1455.31" y="740.012"/>
  <object id="269" x="1456.61" y="740.012" width="1.30055"/>
  <object id="270" x="1158.79" y="357.651" width="27.3115" height="15.6066"/>
  <object id="271" x="1192.6" y="344.645" width="1.30055"/>
  <object id="272" x="1179.6" y="356.35"/>
  <object id="273" x="1190" y="344.645" width="29.9126" height="18.2077"/>
  <object id="274" x="1308.35" y="344.645" width="41.6176" height="19.5082"/>
  <object id="275" x="1163.99" y="374.558"/>
  <object id="276" x="1348.67" y="351.148" width="22.1093" height="27.3115"/>
  <object id="277" x="1357.77" y="381.061"/>
  <object id="278" x="1357.77" y="377.159" width="3.90165" height="2.6011"/>
  <object id="279" x="1361.67" y="368.055"/>
  <object id="280" x="1362.98" y="368.055" width="1.30055"/>
  <object id="281" x="1043.04" y="334.241" width="16.9071" height="18.2077"/>
  <object id="282" x="1027.43" y="329.039" width="26.011" height="28.6121"/>
  <object id="283" x="1033.94" y="357.651" width="1.30055" height="1.30055"/>
  <object id="284" x="1033.94" y="356.35" height="1.30055"/>
  <object id="285" x="1037.84" y="344.645" height="2.6011"/>
  <object id="286" x="1039.14" y="343.345"/>
  <object id="287" x="1052.14" y="351.148" width="23.4099" height="35.1148"/>
  <object id="288" x="1089.86" y="270.514" width="31.2132" height="32.5137"/>
  <object id="289" x="1024.83" y="284.82" width="2.6011" height="1.30055"/>
  <object id="290" x="1023.53" y="286.121"/>
  <object id="291" x="1288.84" y="209.388" width="18.2077" height="68.9291"/>
  <object id="292" x="1226.42" y="208.088" width="1.30055" height="67.6285"/>
  <object id="293" x="1214.71" y="195.082"/>
  <object id="294" x="1214.71" y="195.082"/>
  <object id="295" x="1214.71" y="195.082"/>
  <object id="296" x="1222.52" y="297.826" height="1.30055"/>
  <object id="297" x="1222.52" y="300.427" height="1.30055"/>
  <object id="298" x="1412.4" y="271.815" width="29.9126" height="29.9126"/>
  <object id="299" x="1405.89" y="290.022"/>
  <object id="300" x="1405.89" y="290.022"/>
  <object id="301" x="1403.29" y="283.52"/>
  <object id="302" x="1446.21" y="286.121"/>
  <object id="303" x="1441.01" y="349.848" width="10.4044" height="41.6176"/>
  <object id="304" x="1467.02" y="336.842"/>
  <object id="305" x="1465.72" y="340.744"/>
  <object id="306" x="1465.72" y="340.744" width="13.0055" height="1.30055"/>
  <object id="307" x="1456.61" y="487.706" width="14.306" height="85.8362"/>
  <object id="308" x="1457.92" y="572.241"/>
  <object id="309" x="1457.92" y="572.241" height="2.6011"/>
  <object id="310" x="1459.22" y="578.744" width="2.6011"/>
  <object id="311" x="1463.12" y="422.678" width="41.6176" height="37.7159"/>
  <object id="312" x="1519.04" y="455.192" width="1.30055"/>
  <object id="313" x="1524.24" y="574.843" width="27.3115" height="46.8198"/>
 </objectgroup>
</map>
