<?xml version="1.0" encoding="UTF-8"?>
<map version="1.10" tiledversion="1.12.1" orientation="orthogonal" renderorder="right-down" width="100" height="57" tilewidth="16" tileheight="16" infinite="0" nextlayerid="3" nextobjectid="213">
 <imagelayer id="1" name="background" offsetx="29.9126" offsety="1.30055">
  <image source="level1.png" width="1600" height="900"/>
 </imagelayer>
 <objectgroup id="2" name="collision">
  <object id="1" x="407.072" y="44.2187" width="27.3115" height="189.88"/>
  <object id="2" x="132.656" y="35.1148" width="78.0329" height="63.7269"/>
  <object id="3" x="150.864" y="104.044" width="22.1093" height="659.378"/>
  <object id="5" x="170.372" y="845.357"/>
  <object id="6" x="161.268" y="776.428"/>
  <object id="7" x="161.268" y="776.428" width="10.4044" height="5.20219"/>
  <object id="8" x="175.574" y="782.93"/>
  <object id="9" x="146.962" y="782.93" width="1.30055"/>
  <object id="10" x="145.661" y="782.93" width="1.30055"/>
  <object id="11" x="145.661" y="781.63"/>
  <object id="12" x="152.164" y="777.728" width="1.30055"/>
  <object id="13" x="172.973" y="780.329"/>
  <object id="14" x="174.274" y="781.63"/>
  <object id="15" x="175.574" y="211.989" width="119.65" height="15.6066"/>
  <object id="16" x="369.356" y="206.787" width="50.7214" height="36.4154"/>
  <object id="17" x="382.361" y="214.591" width="3.90165"/>
  <object id="18" x="397.968" y="210.689"/>
  <object id="19" x="383.662" y="205.487"/>
  <object id="20" x="381.061" y="205.487"/>
  <object id="21" x="381.061" y="204.186"/>
  <object id="22" x="185.978" y="343.345" width="98.8417" height="102.743"/>
  <object id="23" x="180.776" y="449.99" width="106.645" height="22.1093"/>
  <object id="24" x="192.481" y="368.055"/>
  <object id="25" x="188.58" y="360.252"/>
  <object id="26" x="189.88" y="348.547"/>
  <object id="27" x="335.542" y="238" width="24.7104" height="98.8417"/>
  <object id="28" x="351.148" y="321.236"/>
  <object id="29" x="351.148" y="290.022"/>
  <object id="30" x="332.94" y="326.438" width="13.0055" height="10.4044"/>
  <object id="31" x="336.842" y="326.438" width="42.9181" height="18.2077"/>
  <object id="32" x="358.951" y="331.64" width="29.9126" height="19.5082"/>
  <object id="33" x="386.263" y="334.241" width="41.6176" height="15.6066"/>
  <object id="34" x="417.476" y="343.345" width="9.10384" height="6.50274"/>
  <object id="35" x="361.553" y="352.449" width="57.2241" height="55.9236"/>
  <object id="36" x="421.378" y="353.749" width="28.6121" height="175.574"/>
  <object id="37" x="395.367" y="446.088" width="27.3115" height="41.6176"/>
  <object id="39" x="395.367" y="498.11" width="18.2077" height="44.2187"/>
  <object id="40" x="435.684" y="638.569" width="18.2077" height="178.175"/>
  <object id="41" x="444.788" y="374.558" width="23.4099" height="40.317"/>
  <object id="42" x="469.498" y="364.154" width="27.3115" height="42.9181"/>
  <object id="43" x="476.001" y="375.859" width="2.6011"/>
  <object id="44" x="184.678" y="625.564" width="145.661" height="35.1148"/>
  <object id="46" x="404.471" y="768.624"/>
  <object id="47" x="403.17" y="768.624" width="1.30055"/>
  <object id="48" x="394.066" y="763.422"/>
  <object id="49" x="394.066" y="763.422"/>
  <object id="53" x="391.465" y="742.613" width="1.30055"/>
  <object id="54" x="408.372" y="742.613" width="1.30055" height="1.30055"/>
  <object id="55" x="410.973" y="755.619" height="1.30055"/>
  <object id="56" x="410.973" y="758.22" width="2.6011"/>
  <object id="57" x="413.574" y="742.613"/>
  <object id="58" x="413.574" y="742.613"/>
  <object id="59" x="401.87" y="745.214" width="1.30055"/>
  <object id="60" x="489.006" y="130.055" width="24.7104" height="153.465"/>
  <object id="61" x="494.208" y="128.754"/>
  <object id="62" x="498.11" y="128.754"/>
  <object id="63" x="500.711" y="128.754"/>
  <object id="64" x="500.711" y="122.252" width="258.809" height="22.1093"/>
  <object id="65" x="740.012" y="145.661" width="22.1093" height="174.274"/>
  <object id="86" x="664.58" y="299.126" width="81.9346" height="33.8143"/>
  <object id="87" x="749.116" y="318.634" height="1.30055"/>
  <object id="88" x="712.701" y="306.929" width="2.6011" height="1.30055"/>
  <object id="89" x="711.4" y="303.028" width="1.30055" height="1.30055"/>
  <object id="90" x="708.799" y="300.427" width="1.30055"/>
  <object id="91" x="691.892" y="303.028" width="2.6011"/>
  <object id="92" x="676.285" y="300.427"/>
  <object id="93" x="676.285" y="300.427" width="1.30055"/>
  <object id="94" x="694.493" y="300.427" width="3.90165"/>
  <object id="95" x="706.198" y="300.427" width="1.30055"/>
  <object id="96" x="710.1" y="300.427" width="5.20219"/>
  <object id="97" x="721.805" y="300.427" width="1.30055"/>
  <object id="98" x="616.46" y="332.94" width="16.9071" height="187.279"/>
  <object id="99" x="582.646" y="358.951" width="1.30055"/>
  <object id="100" x="583.946" y="358.951" height="1.30055"/>
  <object id="101" x="585.247" y="368.055" height="5.20219"/>
  <object id="102" x="585.247" y="378.46"/>
  <object id="103" x="585.247" y="378.46" height="13.0055"/>
  <object id="105" x="586.547" y="364.154" width="2.6011" height="3.90165"/>
  <object id="106" x="589.149" y="375.859" width="5.20219"/>
  <object id="107" x="593.05" y="375.859" width="2.6011" height="2.6011"/>
  <object id="109" x="587.848" y="371.957" width="1.30055"/>
  <object id="110" x="440.886" y="508.515" width="183.377" height="29.9126"/>
  <object id="111" x="596.952" y="565.739" width="36.4154" height="122.252"/>
  <object id="112" x="547.531" y="546.23" width="74.1313" height="27.3115"/>
  <object id="113" x="641.17" y="383.662" width="18.2077" height="53.3225"/>
  <object id="114" x="668.482" y="444.788" width="27.3115" height="57.2241"/>
  <object id="115" x="695.794" y="449.99" height="2.6011"/>
  <object id="116" x="828.45" y="269.214" width="41.6176" height="83.2351"/>
  <object id="117" x="831.051" y="358.951" width="6.50274"/>
  <object id="118" x="850.559" y="360.252"/>
  <object id="119" x="855.761" y="360.252" width="2.6011" height="1.30055"/>
  <object id="120" x="797.236" y="130.055" width="22.1093" height="40.317"/>
  <object id="121" x="805.04" y="161.268"/>
  <object id="122" x="798.537" y="157.366"/>
  <object id="123" x="797.236" y="152.164" height="2.6011"/>
  <object id="124" x="797.236" y="144.361"/>
  <object id="125" x="797.236" y="144.361"/>
  <object id="126" x="862.264" y="152.164" width="91.0384" height="62.4263"/>
  <object id="127" x="864.865" y="157.366" width="1.30055"/>
  <object id="128" x="870.067" y="154.765" width="3.90165"/>
  <object id="129" x="879.171" y="154.765"/>
  <object id="130" x="881.772" y="154.765" width="13.0055" height="1.30055"/>
  <object id="131" x="901.28" y="156.066"/>
  <object id="132" x="902.581" y="154.765"/>
  <object id="133" x="909.084" y="152.164" width="3.90165"/>
  <object id="134" x="922.089" y="153.465" width="3.90165" height="1.30055"/>
  <object id="135" x="931.193" y="154.765"/>
  <object id="136" x="931.193" y="154.765"/>
  <object id="137" x="941.597" y="152.164"/>
  <object id="138" x="918.187" y="157.366"/>
  <object id="139" x="1026.13" y="140.459" width="45.5192" height="37.7159"/>
  <object id="140" x="1032.64" y="146.962"/>
  <object id="141" x="1027.43" y="140.459" width="1.30055" height="1.30055"/>
  <object id="142" x="1045.64" y="140.459" width="1.30055"/>
  <object id="143" x="1027.43" y="170.372" width="44.2187" height="31.2132"/>
  <object id="144" x="1190" y="94.9401" width="120.951" height="42.9181"/>
  <object id="145" x="1195.2" y="202.886" width="127.454" height="32.5137"/>
  <object id="146" x="1223.82" y="196.383" width="2.6011"/>
  <object id="147" x="1242.02" y="196.383" width="5.20219"/>
  <object id="148" x="1257.63" y="197.683"/>
  <object id="149" x="1264.13" y="192.481" width="10.4044" height="3.90165"/>
  <object id="150" x="1282.34" y="189.88" width="2.6011"/>
  <object id="151" x="1301.85" y="191.181" width="2.6011" height="1.30055"/>
  <object id="152" x="1309.65" y="195.082" width="1.30055"/>
  <object id="153" x="1249.83" y="197.683" width="1.30055"/>
  <object id="154" x="1231.62" y="197.683" width="3.90165" height="1.30055"/>
  <object id="155" x="1227.72" y="198.984"/>
  <object id="156" x="1223.82" y="198.984"/>
  <object id="157" x="1223.82" y="198.984"/>
  <object id="158" x="1214.71" y="198.984" width="1.30055" height="2.6011"/>
  <object id="159" x="1195.2" y="293.924" width="127.454" height="42.9181"/>
  <object id="160" x="1196.5" y="396.667" width="123.552" height="42.9181"/>
  <object id="161" x="742.613" y="543.629" width="31.2132" height="37.7159"/>
  <object id="162" x="738.712" y="608.657" width="65.0274" height="49.4208"/>
  <object id="163" x="802.439" y="598.252" width="94.9401" height="20.8088"/>
  <object id="164" x="877.87" y="620.362" width="23.4099" height="65.0274"/>
  <object id="165" x="799.837" y="714.001" width="2.6011"/>
  <object id="166" x="797.236" y="714.001"/>
  <object id="167" x="794.635" y="714.001" height="3.90165"/>
  <object id="168" x="798.537" y="724.406"/>
  <object id="169" x="801.138" y="728.307" width="1.30055"/>
  <object id="170" x="812.843" y="727.007"/>
  <object id="171" x="812.843" y="727.007"/>
  <object id="172" x="727.007" y="753.018" width="42.9181" height="16.9071"/>
  <object id="173" x="880.471" y="681.488" width="76.7324" height="46.8198"/>
  <object id="174" x="914.286" y="674.985"/>
  <object id="175" x="929.892" y="673.684"/>
  <object id="176" x="952.002" y="674.985" width="3.90165" height="1.30055"/>
  <object id="177" x="965.007" y="676.285"/>
  <object id="178" x="970.209" y="676.285"/>
  <object id="179" x="963.707" y="680.187" width="89.7379" height="23.4099"/>
  <object id="180" x="946.799" y="710.1" width="89.7379" height="53.3225"/>
  <object id="181" x="1048.24" y="710.1" width="31.2132" height="33.8143"/>
  <object id="182" x="1018.33" y="342.044" width="41.6176" height="42.9181"/>
  <object id="183" x="1010.53" y="360.252" width="35.1148" height="46.8198"/>
  <object id="184" x="1036.54" y="397.968" width="35.1148" height="46.8198"/>
  <object id="185" x="1049.54" y="357.651" height="1.30055"/>
  <object id="186" x="1420.2" y="395.367" width="20.8088" height="105.344"/>
  <object id="187" x="1243.32" y="512.416" width="235.399" height="20.8088"/>
  <object id="188" x="1115.87" y="520.219" width="148.263" height="11.7049"/>
  <object id="189" x="1108.07" y="537.127" width="28.6121" height="106.645"/>
  <object id="190" x="1113.27" y="716.602" width="16.9071" height="81.9346"/>
  <object id="191" x="1470.92" y="550.132" width="19.5082" height="252.306"/>
  <object id="192" x="831.051" y="449.99" width="120.951" height="68.9291"/>
  <object id="193" x="953.302" y="503.312"/>
  <object id="194" x="961.105" y="495.509" width="2.6011"/>
  <object id="195" x="967.608" y="496.81"/>
  <object id="196" x="971.51" y="499.411" width="1.30055"/>
  <object id="197" x="972.81" y="499.411"/>
  <object id="198" x="972.81" y="499.411"/>
  <object id="199" x="565.739" y="693.192" width="1.30055"/>
  <object id="200" x="565.739" y="695.794"/>
  <object id="201" x="565.739" y="694.493"/>
  <object id="202" x="569.64" y="689.291"/>
  <object id="203" x="569.64" y="689.291"/>
  <object id="204" x="564.438" y="681.488"/>
  <object id="205" x="564.438" y="681.488"/>
  <object id="206" x="593.05" y="659.378"/>
  <object id="207" x="594.351" y="654.176" height="1.30055"/>
  <object id="208" x="593.05" y="650.274" width="1.30055" height="1.30055"/>
  <object id="209" x="559.236" y="695.794"/>
  <object id="210" x="127.454" y="801.138" width="42.9181" height="24.7104"/>
  <object id="211" x="184.678" y="790.734" width="1326.56" height="28.6121"/>
  <object id="212" x="213.29" y="41.6176" width="1245.93" height="32.5137"/>
 </objectgroup>
</map>
