<?xml version="1.0" encoding="UTF-8"?>
<map version="1.10" tiledversion="1.12.1" orientation="orthogonal" renderorder="right-down" width="100" height="57" tilewidth="16" tileheight="16" infinite="0" nextlayerid="3" nextobjectid="235">
 <imagelayer id="1" name="background">
  <image source="level3.png" width="1600" height="900"/>
 </imagelayer>
 <objectgroup id="2" name="collision">
  <object id="1" x="39.0165" y="293.924" width="15.6066" height="124.853"/>
  <object id="2" x="53.3225" y="280.919" height="2.6011"/>
  <object id="3" x="45.5192" y="290.022" width="87.1368" height="16.9071"/>
  <object id="4" x="123.552" y="93.6395" width="14.306" height="202.886"/>
  <object id="5" x="120.951" y="284.82"/>
  <object id="6" x="117.049" y="283.52" width="3.90165" height="1.30055"/>
  <object id="7" x="114.448" y="282.219"/>
  <object id="8" x="114.448" y="282.219"/>
  <object id="9" x="96.2406" y="28.6121" width="79.3335" height="67.6285"/>
  <object id="10" x="179.476" y="70.2296" width="171.672" height="14.306"/>
  <object id="11" x="335.542" y="93.6395" width="26.011" height="139.159"/>
  <object id="12" x="310.831" y="219.793" width="39.0165" height="53.3225"/>
  <object id="13" x="148.263" y="226.295" width="20.8088" height="39.0165"/>
  <object id="14" x="144.361" y="232.798" width="106.645" height="48.1203"/>
  <object id="15" x="162.569" y="184.678" width="1.30055"/>
  <object id="16" x="163.869" y="184.678"/>
  <object id="17" x="163.869" y="178.175"/>
  <object id="18" x="163.869" y="178.175"/>
  <object id="19" x="157.366" y="191.181"/>
  <object id="20" x="157.366" y="192.481"/>
  <object id="21" x="306.929" y="161.268"/>
  <object id="22" x="139.159" y="396.667" width="244.503" height="45.5192"/>
  <object id="23" x="373.257" y="342.044" width="11.7049" height="57.2241"/>
  <object id="24" x="113.148" y="443.487" width="18.2077" height="97.5412"/>
  <object id="25" x="122.252" y="541.028"/>
  <object id="26" x="127.454" y="544.93"/>
  <object id="27" x="135.257" y="521.52" width="78.0329" height="22.1093"/>
  <object id="28" x="145.661" y="529.323"/>
  <object id="29" x="171.672" y="528.023" width="6.50274"/>
  <object id="30" x="184.678" y="528.023" width="1.30055"/>
  <object id="31" x="198.984" y="529.323" width="1.30055"/>
  <object id="32" x="205.487" y="530.624" width="16.9071" height="124.853"/>
  <object id="33" x="224.995" y="645.072" width="16.9071" height="13.0055"/>
  <object id="35" x="230.197" y="659.378" width="15.6066" height="41.6176"/>
  <object id="41" x="370.656" y="197.683" width="33.8143" height="15.6066"/>
  <object id="42" x="369.356" y="204.186"/>
  <object id="43" x="399.268" y="202.886"/>
  <object id="44" x="401.87" y="198.984" width="3.90165"/>
  <object id="45" x="405.771" y="204.186"/>
  <object id="46" x="403.17" y="218.492"/>
  <object id="47" x="414.875" y="218.492"/>
  <object id="48" x="399.268" y="226.295" width="31.2132" height="32.5137"/>
  <object id="49" x="366.755" y="89.7379" width="184.678" height="15.6066"/>
  <object id="50" x="530.624" y="44.2187" width="19.5082" height="39.0165"/>
  <object id="51" x="543.629" y="122.252" width="11.7049" height="154.765"/>
  <object id="52" x="512.416" y="236.7" width="36.4154" height="39.0165"/>
  <object id="53" x="504.613" y="238"/>
  <object id="54" x="509.815" y="249.705"/>
  <object id="55" x="509.815" y="249.705" height="1.30055"/>
  <object id="56" x="507.214" y="251.006"/>
  <object id="57" x="502.012" y="240.602"/>
  <object id="58" x="505.913" y="235.399"/>
  <object id="59" x="505.913" y="231.498"/>
  <object id="60" x="504.613" y="228.897"/>
  <object id="61" x="504.613" y="228.897"/>
  <object id="62" x="533.225" y="42.9181" width="198.984" height="54.623"/>
  <object id="63" x="871.368" y="52.0219" width="192.481" height="44.2187"/>
  <object id="64" x="1062.55" y="72.8307" width="371.957" height="42.9181"/>
  <object id="65" x="1429.3" y="32.5137" width="76.7324" height="70.2296"/>
  <object id="66" x="1342.17" y="204.186" width="68.9291" height="49.4208"/>
  <object id="67" x="1321.36" y="231.498" height="3.90165"/>
  <object id="68" x="1321.36" y="226.295"/>
  <object id="69" x="1321.36" y="221.093" height="2.6011"/>
  <object id="70" x="1317.46" y="214.591" width="1.30055"/>
  <object id="71" x="1326.56" y="247.104" height="3.90165"/>
  <object id="72" x="1320.06" y="260.11" width="2.6011"/>
  <object id="73" x="1313.55" y="256.208" width="1.30055" height="1.30055"/>
  <object id="74" x="1312.25" y="254.908" width="1.30055" height="1.30055"/>
  <object id="75" x="1309.65" y="251.006" width="2.6011" height="3.90165"/>
  <object id="76" x="1279.74" y="245.804" width="20.8088" height="14.306"/>
  <object id="77" x="1290.14" y="249.705" width="1.30055" height="1.30055"/>
  <object id="78" x="1284.94" y="251.006" width="1.30055" height="1.30055"/>
  <object id="79" x="1284.94" y="252.306"/>
  <object id="80" x="1210.81" y="118.35" width="61.1258" height="28.6121"/>
  <object id="81" x="1216.01" y="144.361"/>
  <object id="82" x="1216.01" y="141.76"/>
  <object id="83" x="1213.41" y="137.858"/>
  <object id="84" x="1088.56" y="111.847" width="10.4044" height="145.661"/>
  <object id="85" x="1093.76" y="257.509" width="16.9071" height="11.7049"/>
  <object id="86" x="1101.56" y="264.011" width="24.7104" height="20.8088"/>
  <object id="87" x="1109.37" y="277.017" width="32.5137" height="19.5082"/>
  <object id="88" x="1149.69" y="279.618" width="23.4099" height="16.9071"/>
  <object id="89" x="1290.14" y="336.842" width="13.0055" height="39.0165"/>
  <object id="90" x="1299.25" y="369.356" width="46.8198" height="18.2077"/>
  <object id="91" x="1304.45" y="388.864"/>
  <object id="92" x="1303.15" y="388.864" width="1.30055"/>
  <object id="93" x="1300.55" y="362.853" height="3.90165"/>
  <object id="94" x="1299.25" y="355.05"/>
  <object id="95" x="1464.42" y="104.044" width="13.0055" height="331.64"/>
  <object id="96" x="1219.91" y="465.596" width="19.5082" height="14.306"/>
  <object id="97" x="1229.02" y="469.498" height="1.30055"/>
  <object id="98" x="1231.62" y="465.596" width="1.30055"/>
  <object id="99" x="1235.52" y="462.995" width="1.30055"/>
  <object id="100" x="1238.12" y="477.301" width="154.765" height="31.2132"/>
  <object id="101" x="1394.19" y="435.684" width="9.10384" height="62.4263"/>
  <object id="102" x="1404.59" y="434.383" width="76.7324" height="18.2077"/>
  <object id="103" x="1478.72" y="443.487" width="19.5082" height="325.137"/>
  <object id="104" x="1411.1" y="746.515" width="67.6285" height="35.1148"/>
  <object id="105" x="1421.5" y="777.728" width="1.30055"/>
  <object id="106" x="1422.8" y="777.728"/>
  <object id="107" x="1430.6" y="756.919"/>
  <object id="108" x="1434.51" y="745.214" width="10.4044" height="2.6011"/>
  <object id="109" x="1469.62" y="743.914" height="1.30055"/>
  <object id="110" x="1208.21" y="743.914" width="97.5412" height="37.7159"/>
  <object id="111" x="1214.71" y="603.455" width="23.4099" height="135.257"/>
  <object id="112" x="1264.13" y="573.542" width="39.0165" height="42.9181"/>
  <object id="113" x="1225.12" y="604.755" width="2.6011" height="1.30055"/>
  <object id="114" x="1234.22" y="622.963"/>
  <object id="115" x="1234.22" y="622.963"/>
  <object id="116" x="1239.42" y="616.46"/>
  <object id="124" x="1420.2" y="573.542" width="49.4208" height="41.6176"/>
  <object id="125" x="1461.82" y="600.853" width="14.306" height="70.2296"/>
  <object id="126" x="1067.75" y="590.449" width="54.623" height="29.9126"/>
  <object id="127" x="1069.05" y="604.755" width="23.4099" height="16.9071"/>
  <object id="128" x="1074.25" y="608.657"/>
  <object id="129" x="1121.07" y="595.651"/>
  <object id="130" x="1121.07" y="594.351" height="1.30055"/>
  <object id="131" x="1114.57" y="582.646"/>
  <object id="132" x="1114.57" y="582.646"/>
  <object id="133" x="1118.47" y="589.149" width="1.30055" height="6.50274"/>
  <object id="134" x="925.991" y="516.318" width="14.306" height="185.978"/>
  <object id="135" x="946.799" y="664.58" height="1.30055"/>
  <object id="136" x="946.799" y="656.777"/>
  <object id="137" x="946.799" y="656.777"/>
  <object id="138" x="941.597" y="685.389" width="2.6011" height="2.6011"/>
  <object id="139" x="945.499" y="695.794"/>
  <object id="140" x="907.783" y="687.99" width="35.1148" height="27.3115"/>
  <object id="141" x="942.898" y="500.711" width="46.8198" height="29.9126"/>
  <object id="142" x="994.92" y="503.312"/>
  <object id="143" x="994.92" y="503.312"/>
  <object id="144" x="987.116" y="503.312" width="7.80329" height="1.30055"/>
  <object id="145" x="1066.45" y="747.815" width="153.465" height="44.2187"/>
  <object id="146" x="923.39" y="743.914" width="163.869" height="32.5137"/>
  <object id="147" x="736.111" y="771.225" width="171.672" height="28.6121"/>
  <object id="148" x="903.881" y="775.127"/>
  <object id="149" x="691.892" y="760.821" width="67.6285" height="33.8143"/>
  <object id="150" x="400.569" y="714.001" width="292.623" height="33.8143"/>
  <object id="151" x="697.094" y="756.919" width="1.30055"/>
  <object id="152" x="698.395" y="763.422"/>
  <object id="153" x="698.395" y="763.422"/>
  <object id="154" x="697.094" y="763.422" width="1.30055"/>
  <object id="155" x="68.9291" y="704.897" width="23.4099" height="29.9126"/>
  <object id="156" x="96.2406" y="721.805" width="41.6176" height="20.8088"/>
  <object id="157" x="140.459" y="717.903" width="193.782" height="28.6121"/>
  <object id="158" x="312.132" y="720.504" width="7.80329" height="1.30055"/>
  <object id="159" x="323.837" y="719.203" height="1.30055"/>
  <object id="160" x="175.574" y="655.477"/>
  <object id="161" x="176.875" y="660.679"/>
  <object id="162" x="176.875" y="660.679"/>
  <object id="163" x="176.875" y="656.777"/>
  <object id="164" x="176.875" y="647.673"/>
  <object id="165" x="176.875" y="647.673"/>
  <object id="166" x="162.569" y="645.072" width="1.30055"/>
  <object id="167" x="159.967" y="645.072" width="2.6011"/>
  <object id="168" x="148.263" y="641.17" width="2.6011" height="1.30055"/>
  <object id="169" x="148.263" y="641.17"/>
  <object id="170" x="149.563" y="652.875"/>
  <object id="171" x="149.563" y="652.875"/>
  <object id="172" x="150.864" y="641.17" height="1.30055"/>
  <object id="173" x="127.454" y="635.968"/>
  <object id="174" x="127.454" y="635.968"/>
  <object id="175" x="128.754" y="635.968"/>
  <object id="176" x="45.5192" y="504.613" width="18.2077" height="27.3115"/>
  <object id="177" x="52.0219" y="473.4"/>
  <object id="178" x="65.0274" y="469.498" width="1.30055" height="1.30055"/>
  <object id="179" x="340.744" y="539.728" width="110.547" height="15.6066"/>
  <object id="180" x="436.984" y="548.832" width="19.5082" height="36.4154"/>
  <object id="181" x="332.94" y="560.536"/>
  <object id="182" x="327.738" y="554.034"/>
  <object id="183" x="310.831" y="546.23"/>
  <object id="184" x="310.831" y="546.23"/>
  <object id="185" x="482.504" y="373.257" width="13.0055" height="76.7324"/>
  <object id="186" x="477.301" y="344.645" width="26.011" height="26.011"/>
  <object id="187" x="504.613" y="356.35" width="117.049" height="18.2077"/>
  <object id="188" x="634.668" y="382.361"/>
  <object id="189" x="634.668" y="382.361"/>
  <object id="190" x="565.739" y="210.689" width="22.1093" height="31.2132"/>
  <object id="191" x="599.553" y="235.399" width="37.7159" height="18.2077"/>
  <object id="192" x="585.247" y="265.312"/>
  <object id="193" x="583.946" y="262.711"/>
  <object id="194" x="776.428" y="292.623" width="15.6066" height="66.328"/>
  <object id="195" x="719.203" y="336.842" width="61.1258" height="35.1148"/>
  <object id="196" x="756.919" y="282.219"/>
  <object id="197" x="756.919" y="282.219" width="2.6011"/>
  <object id="198" x="795.936" y="327.738" width="45.5192" height="9.10384"/>
  <object id="199" x="786.832" y="460.394" width="88.4373" height="22.1093"/>
  <object id="200" x="554.034" y="470.799" width="24.7104" height="33.8143"/>
  <object id="201" x="567.039" y="490.307" width="57.2241" height="31.2132"/>
  <object id="202" x="560.536" y="511.116"/>
  <object id="203" x="589.149" y="520.219" width="2.6011" height="1.30055"/>
  <object id="204" x="608.657" y="503.312" width="15.6066" height="28.6121"/>
  <object id="205" x="633.367" y="526.722" width="93.6395" height="5.20219"/>
  <object id="206" x="651.575" y="534.526"/>
  <object id="207" x="651.575" y="530.624"/>
  <object id="208" x="651.575" y="530.624" width="1.30055"/>
  <object id="209" x="641.17" y="505.913"/>
  <object id="210" x="641.17" y="498.11"/>
  <object id="211" x="717.903" y="539.728" width="26.011" height="19.5082"/>
  <object id="212" x="749.116" y="615.16" width="48.1203" height="32.5137"/>
  <object id="213" x="740.012" y="648.974" width="3.90165"/>
  <object id="214" x="734.81" y="650.274"/>
  <object id="215" x="779.029" y="650.274" width="1.30055"/>
  <object id="216" x="780.329" y="650.274"/>
  <object id="217" x="771.225" y="648.974" width="2.6011"/>
  <object id="218" x="768.624" y="648.974" width="2.6011"/>
  <object id="219" x="754.318" y="648.974" width="2.6011"/>
  <object id="220" x="749.116" y="646.373"/>
  <object id="221" x="970.209" y="330.339" width="31.2132" height="39.0165"/>
  <object id="222" x="989.718" y="338.143"/>
  <object id="223" x="989.718" y="338.143"/>
  <object id="224" x="984.515" y="330.339"/>
  <object id="225" x="984.515" y="330.339" width="7.80329" height="9.10384"/>
  <object id="226" x="997.521" y="353.749" width="31.2132" height="44.2187"/>
  <object id="227" x="1015.73" y="378.46" width="1.30055"/>
  <object id="228" x="1020.93" y="378.46" width="1.30055"/>
  <object id="229" x="1052.14" y="382.361" width="50.7214" height="16.9071"/>
  <object id="230" x="978.013" y="204.186" width="36.4154" height="49.4208"/>
  <object id="231" x="914.286" y="185.978" width="55.9236" height="28.6121"/>
  <object id="232" x="933.794" y="202.886"/>
  <object id="233" x="968.909" y="209.388" width="3.90165" height="1.30055"/>
  <object id="234" x="980.614" y="210.689" width="3.90165" height="1.30055"/>
 </objectgroup>
</map>
